svg/fluentui-system-icons/ic_fluent_handshake_24_filled.svg

<svg width="24" height="24" viewBox="0 0 24 24" fill="none" xmlns="http://www.w3.org/2000/svg">
<path d="M12.8345 3.1613C12.8911 3.11843 12.9406 3.06831 12.9822 3.01274L15.5438 3.01274C15.5556 3.01274 15.5675 3.01245 15.5793 3.01189C15.7493 3.00383 15.9192 3.00387 16.0884 3.01189C16.1003 3.01246 16.1121 3.01274 16.124 3.01274H16.1623C16.7373 3.01274 17.2808 3.13879 17.7684 3.36407C17.7813 3.37004 17.7944 3.37564 17.8077 3.38086C18.7252 3.74295 19.5443 4.35985 20.1475 5.2033C21.0565 6.47462 21.3401 8.06853 20.9523 9.55145L17.6707 6.31385C17.5303 6.17538 17.3411 6.09775 17.144 6.09775L12.3992 6.09775C12.3889 6.09775 12.3787 6.09796 12.3685 6.09837C12.2159 6.10461 12.0684 6.15737 11.9462 6.24995L10.0617 7.67775C10.0086 7.718 9.95257 7.75193 9.89462 7.77966C9.48898 7.9738 8.98745 7.86441 8.70388 7.49398C8.66359 7.44135 8.62961 7.38593 8.6018 7.32862C8.40719 6.92746 8.51552 6.43356 8.88533 6.15338L12.8345 3.1613ZM7.89854 14.2347L7.8853 14.2478L6.91122 15.2156L6.89843 15.2284C6.5454 15.5653 5.98432 15.5611 5.6366 15.2156C5.2845 14.8657 5.2845 14.2985 5.6366 13.9487L6.61068 12.9808C6.96278 12.631 7.53364 12.631 7.88574 12.9808C8.23352 13.3264 8.23778 13.884 7.89854 14.2347ZM7.60778 15.9334C7.26855 16.2842 7.27282 16.8418 7.6206 17.1874C7.97269 17.5372 8.54356 17.5372 8.89566 17.1874L9.86973 16.2195C10.2218 15.8697 10.2218 15.3025 9.86973 14.9526C9.82627 14.9094 9.77947 14.8716 9.73016 14.839C9.38499 14.6114 8.91679 14.6449 8.6079 14.9397L8.59511 14.9525L7.62104 15.9204L7.60778 15.9334ZM5.50064 11.4069C5.85274 11.7568 5.85274 12.324 5.50064 12.6738L4.52656 13.6417C4.17446 13.9915 3.6036 13.9915 3.2515 13.6417C2.8994 13.2918 2.8994 12.7246 3.2515 12.3748L4.22558 11.4069C4.57767 11.0571 5.14854 11.0571 5.50064 11.4069ZM11.8542 16.9243C12.2063 17.2742 12.2063 17.8414 11.8542 18.1912L10.8801 19.1591C10.8079 19.2309 10.7265 19.2879 10.6396 19.3302C10.303 19.4942 9.88495 19.4372 9.60508 19.1591C9.32521 18.881 9.2678 18.4656 9.43284 18.1312L9.4341 18.1286C9.47656 18.0433 9.53356 17.9632 9.60508 17.8922L10.5792 16.9243C10.9313 16.5745 11.5021 16.5745 11.8542 16.9243ZM5.34396 4.83009C6.7396 3.44337 8.63789 2.86048 10.4561 3.0814L7.97949 4.95778C6.89421 5.78003 6.68516 7.3246 7.51281 8.40576C8.33868 9.48461 9.88457 9.69384 10.9675 8.87336L12.6512 7.59775L16.8363 7.59775L20.3427 11.0572C20.3538 11.071 20.3658 11.0843 20.3786 11.0971L21.5286 12.2471C22.0904 12.8089 22.0904 13.7198 21.5286 14.2816C20.9988 14.8114 20.1586 14.8415 19.5934 14.3721L19.4971 14.2758C19.4782 14.2569 19.4581 14.2397 19.437 14.2244L18.3442 13.1316C18.1489 12.9363 17.8323 12.9363 17.6371 13.1316C17.4418 13.3269 17.4418 13.6434 17.6371 13.8387L18.787 14.9887C18.8286 15.0303 18.8714 15.07 18.9151 15.108L18.9589 15.1518C19.3569 15.5498 19.3569 16.1951 18.9589 16.593C18.5609 16.991 17.9157 16.991 17.5177 16.593L17.3488 16.4241C17.1536 16.2289 16.837 16.2289 16.6417 16.4241C16.5416 16.5242 16.4928 16.6562 16.4954 16.7874C16.4924 16.9191 16.5412 17.0517 16.6417 17.1522L16.8647 17.3752C17.2328 17.7433 17.2328 18.3401 16.8647 18.7082C16.4966 19.0763 15.8998 19.0763 15.5317 18.7082L15.5306 18.7071L15.5188 18.6952L15.3088 18.4852C15.2363 18.4127 15.1471 18.3671 15.0536 18.3485C14.8952 18.3168 14.7244 18.3624 14.6016 18.4852C14.4063 18.6804 14.4063 18.997 14.6016 19.1923L14.82 19.4107C15.187 19.7866 15.1842 20.3888 14.8117 20.7613C14.4432 21.1298 13.8481 21.1374 13.4703 20.7783L12.0386 19.4177L12.5636 18.8961C13.3075 18.157 13.3075 16.9586 12.5636 16.2195C12.1709 15.8294 11.6495 15.6452 11.1353 15.6669C11.1571 15.1559 10.9717 14.6379 10.5791 14.2478C10.1866 13.8578 9.66538 13.6735 9.15129 13.6951C9.17315 13.1842 8.98775 12.6661 8.59511 12.276C8.0955 11.7796 7.3874 11.6166 6.75086 11.787C6.6972 11.3902 6.51692 11.0071 6.21001 10.7021C5.52357 10.0201 4.44357 9.9674 3.69636 10.5441C3.2346 8.55455 3.7838 6.38026 5.34396 4.83009Z" fill="#212121"/>
</svg>

<svg xmlns="http://www.w3.org/2000/svg" width="24" height="24"><path d="M12.835 3.161a.75.75 0 0 0 .147-.148h2.562a5.376 5.376 0 0 1 .58 0h.038a3.817 3.817 0 0 1 1.646.368 5.225 5.225 0 0 1 2.34 1.822 5.208 5.208 0 0 1 .804 4.348l-3.281-3.237a.75.75 0 0 0-.527-.216h-4.775a.75.75 0 0 0-.423.152l-1.884 1.428a.969.969 0 0 1-1.358-.184.952.952 0 0 1 .181-1.34l3.95-2.993ZM7.899 14.235l-.014.013-.974.968-.013.012a.906.906 0 0 1-1.261-.012.892.892 0 0 1 0-1.267l.974-.968a.906.906 0 0 1 1.275 0 .892.892 0 0 1 .013 1.254Zm-.291 1.698a.892.892 0 0 0 .013 1.254c.352.35.923.35 1.275 0l.974-.968a.892.892 0 0 0-.14-1.38.906.906 0 0 0-1.122.1l-.013.014-.974.967-.013.013ZM5.5 11.407a.892.892 0 0 1 0 1.267l-.974.968a.906.906 0 0 1-1.276 0 .892.892 0 0 1 0-1.267l.975-.968a.906.906 0 0 1 1.275 0Zm6.353 5.517a.892.892 0 0 1 0 1.267l-.974.968a.906.906 0 0 1-1.275 0 .892.892 0 0 1-.172-1.028l.001-.002a.894.894 0 0 1 .171-.237l.974-.968a.906.906 0 0 1 1.275 0ZM5.344 4.83a6.179 6.179 0 0 1 5.112-1.749L7.98 4.958a2.452 2.452 0 0 0-.466 3.448 2.473 2.473 0 0 0 3.454.467l1.684-1.275h4.185l3.507 3.46a.497.497 0 0 0 .036.04l1.15 1.15a1.439 1.439 0 0 1-1.936 2.124l-.096-.096a.501.501 0 0 0-.06-.052l-1.093-1.092a.5.5 0 1 0-.707.707l1.15 1.15c.042.041.084.081.128.119l.044.044a1.019 1.019 0 1 1-1.441 1.441l-.17-.169a.5.5 0 0 0-.853.363.498.498 0 0 0 .147.365l.223.223a.943.943 0 1 1-1.333 1.333h-.001l-.012-.013-.21-.21a.497.497 0 0 0-.707 0 .5.5 0 0 0 0 .707l.218.219a.96.96 0 0 1-1.35 1.367l-1.431-1.36.525-.522a1.884 1.884 0 0 0 0-2.677 1.907 1.907 0 0 0-1.429-.552 1.881 1.881 0 0 0-.556-1.42 1.906 1.906 0 0 0-1.428-.552 1.88 1.88 0 0 0-.556-1.419 1.913 1.913 0 0 0-1.844-.489 1.88 1.88 0 0 0-.541-1.085 1.914 1.914 0 0 0-2.514-.158A6.096 6.096 0 0 1 5.344 4.83Z"/></svg>
